X:1
T:Adieu to old England - Hext
%%VWML:SBG-1-2-110-0
F:http://www.vwml.org/record/SBG/1/2/110
Z:Original Sibelius transcriptions by M. & S. Graebe
L:1/8
M:3/8
I:linebreak $
K:C
V:1 treble nm="P1"
V:1
 G | CEG | DFE | (C3 | C2) G | ABc | dcA | (G3 |$ G2) A/B/ | cBc | GEC | DCD | E2 F/G/ | cEG | %14
 FE"^chorus alone remembered "D | C4 |] %16
T:Adieu to old England - Farmer's wife Staverton
F:http://www.vwml.org/record/SBG/1/2/109
Z:Original Sibelius transcriptions by M. & S. Graebe
M:6/8
I:linebreak $
K:Eb
V:1 treble nm="P1"
V:1
 E2 | E G B F A G | E3 z2 B | c d e f e c | B3 B | e d e B G E |$ F E F G A B | e G B A G F | %8
 E3 z2 E/ E/ | E G B F A G |"_&c. as before" x4 x2 |] %11

